svgs/sharp-regular/file-powerpoint.svg

<svg xmlns="http://www.w3.org/2000/svg" viewBox="0 0 384 512"><!--! Font Awesome Pro 6.6.0 by @fontawesome - https://fontawesome.com License - https://fontawesome.com/license (Commercial License) Copyright 2024 Fonticons, Inc. --><path d="M48 464L48 48l176 0 0 112 112 0 0 304L48 464zM256 0L48 0 0 0 0 48 0 464l0 48 48 0 288 0 48 0 0-48 0-336L256 0zM136 208l-24 0 0 24 0 104 0 56 0 24 48 0 0-24 0-32 44 0c42 0 76-34 76-76s-34-76-76-76l-68 0zm68 104l-44 0 0-56 44 0c15.5 0 28 12.5 28 28s-12.5 28-28 28z"/></svg>

<svg xmlns="http://www.w3.org/2000/svg" viewBox="0 0 384 512"><!--! Font Awesome Pro 6.5.2 by @fontawesome - https://fontawesome.com License - https://fontawesome.com/license (Commercial License) Copyright 2024 Fonticons, Inc. --><path d="M48 464V48H224V160H336V464H48zM256 0H48 0V48 464v48H48 336h48V464 128L256 0zM136 208H112v24V336v56 24h48V392 360h44c42 0 76-34 76-76s-34-76-76-76H136zm68 104H160V256h44c15.5 0 28 12.5 28 28s-12.5 28-28 28z"/></svg>
